X: 6
T: Tha Mi Sgith
R: strathspey
M: 4/4
L: 1/8
K: Ador
|: B/ |A<A {f}a2 g<e {f}g2 | {f}e>d(TB>A) {F}G>AB>G |\
A<A {f}a2 g<e {f}g2 | e<dB>g {^c}B<A A3/ :|
|: g/ |e>d(TB>A) {F}G>AB>G | e>d(TB>A) TB2 B>g |\
e>d(TB>A) {F}G>AB>d | e>d{f}g>B {cB}A2 A3/ :|


Tune 647	Setting 13676

